X: 29255
T: New May Moon, The
R: jig
M: 6/8
K: Gmajor
c2A c2G A2G FED|GFE DB,D E2D DEF||
c2A c2G A2G FED|GFE DB,D E2D D3||
ded BGB ded BGB|c2A ABc e3 d3|

